;FLAVOR:Marlin
;TIME:599
;Filament used: 0.167462m
;Layer height: 0.12
;MINX:99.5
;MINY:99.5
;MINZ:0.12
;MAXX:135.5
;MAXY:135.5
;MAXZ:5.24
;Generated with Cura_SteamEngine 5.2.2
M140 S50
M105
M190 S50
M104 S200
M105
M109 S200
M82 ;absolute extrusion mode
; Ender 3 Custom Start G-code
G92 E0 ; Reset Extruder
G28 ; Home all axes
G1 Z2.0 F3000 ; Move Z Axis up little to prevent scratching of Heat Bed
G1 X0.1 Y20 Z0.3 F5000.0 ; Move to start position
G1 X0.1 Y200.0 Z0.3 F1500.0 E15 ; Draw the first line
G1 X0.4 Y200.0 Z0.3 F5000.0 ; Move to side a little
G1 X0.4 Y20 Z0.3 F1500.0 E30 ; Draw the second line
G92 E0 ; Reset Extruder
G1 Z2.0 F3000 ; Move Z Axis up little to prevent scratching of Heat Bed
G1 X5 Y20 Z0.3 F5000.0 ; Move over to prevent blob squish
G92 E0
G92 E0
G1 F2700 E-5
;LAYER_COUNT:42
;LAYER:0
M107
G1 F300 Z0.32
G0 F6000 X102.71 Y102.752 Z0.32
;TYPE:SKIRT
G1 F300 Z0.12
G1 F2700 E0
G1 F1200 X103.399 Y102.116 E0.01871
G1 X104.14 Y101.541 E0.03743
G1 X104.927 Y101.031 E0.05614
G1 X105.755 Y100.59 E0.07487
G1 X106.617 Y100.221 E0.09358
G1 X107.508 Y99.927 E0.1123
G1 X108.42 Y99.709 E0.13101
G1 X109.347 Y99.571 E0.14972
G1 X110.201 Y99.513 E0.1668
G1 X110.83 Y99.5 E0.17935
G1 X123.951 Y99.501 E0.4412
G1 X124.649 Y99.511 E0.45513
G1 X125.585 Y99.565 E0.47384
G1 X126.513 Y99.697 E0.49254
G1 X127.427 Y99.909 E0.51127
G1 X128.319 Y100.198 E0.52998
G1 X129.184 Y100.561 E0.5487
G1 X130.014 Y100.997 E0.56741
G1 X130.805 Y101.502 E0.58614
G1 X131.549 Y102.073 E0.60485
G1 X132.242 Y102.705 E0.62357
G1 X132.879 Y103.393 E0.64228
G1 X133.454 Y104.134 E0.661
G1 X133.965 Y104.92 E0.67971
G1 X134.407 Y105.748 E0.69844
G1 X134.776 Y106.61 E0.71715
G1 X135.071 Y107.5 E0.73586
G1 X135.289 Y108.412 E0.75457
G1 X135.429 Y109.34 E0.7733
G1 X135.487 Y110.201 E0.79052
G1 X135.5 Y110.83 E0.80308
G1 X135.499 Y112.717 E0.84074
G1 X135.484 Y113.781 E0.86197
G1 X135.417 Y116.164 E0.90955
G1 X135.417 Y118.693 E0.96002
G1 X135.5 Y122.014 E1.02631
G1 X135.499 Y123.915 E1.06425
G1 X135.489 Y124.642 E1.07876
G1 X135.436 Y125.579 E1.09748
G1 X135.304 Y126.507 E1.11619
G1 X135.093 Y127.421 E1.13491
G1 X134.804 Y128.313 E1.15362
G1 X134.441 Y129.178 E1.17234
G1 X134.006 Y130.009 E1.19106
G1 X133.501 Y130.799 E1.20977
G1 X132.931 Y131.544 E1.22849
G1 X132.3 Y132.238 E1.24721
G1 X131.611 Y132.875 E1.26594
G1 X130.871 Y133.451 E1.28465
G1 X130.085 Y133.962 E1.30336
G1 X129.258 Y134.404 E1.32207
G1 X128.396 Y134.774 E1.34079
G1 X127.506 Y135.069 E1.3595
G1 X126.594 Y135.288 E1.37822
G1 X125.667 Y135.428 E1.39693
G1 X124.799 Y135.487 E1.41429
G1 X124.17 Y135.5 E1.42685
G1 X111.065 Y135.499 E1.68837
G1 X110.367 Y135.49 E1.7023
G1 X109.431 Y135.438 E1.72101
G1 X108.502 Y135.306 E1.73973
G1 X107.588 Y135.096 E1.75845
G1 X106.695 Y134.809 E1.77717
G1 X105.83 Y134.446 E1.79589
G1 X104.999 Y134.012 E1.8146
G1 X104.208 Y133.508 E1.83331
G1 X103.463 Y132.938 E1.85203
G1 X102.769 Y132.307 E1.87075
G1 X102.132 Y131.62 E1.88945
G1 X101.555 Y130.88 E1.90817
G1 X101.043 Y130.094 E1.92689
G1 X100.6 Y129.267 E1.94562
G1 X100.229 Y128.406 E1.96433
G1 X99.933 Y127.516 E1.98304
G1 X99.714 Y126.604 E2.00176
G1 X99.573 Y125.677 E2.02047
G1 X99.513 Y124.788 E2.03825
G1 X99.5 Y124.158 E2.05083
G1 X99.501 Y122.259 E2.08873
G1 X99.516 Y121.218 E2.1095
G1 X99.583 Y118.826 E2.15726
G1 X99.583 Y116.285 E2.20796
G1 X99.5 Y112.985 E2.27384
G1 X99.501 Y111.009 E2.31327
G1 X99.511 Y110.344 E2.32655
G1 X99.565 Y109.407 E2.34528
G1 X99.699 Y108.479 E2.36399
G1 X99.911 Y107.565 E2.38271
G1 X100.2 Y106.673 E2.40142
G1 X100.565 Y105.809 E2.42014
G1 X101.001 Y104.979 E2.43885
G1 X101.507 Y104.189 E2.45757
G1 X102.078 Y103.445 E2.47629
G1 X102.71 Y102.752 E2.495
G0 F6000 X103.102 Y102.927
G1 F1200 X103.788 Y102.313 E2.51338
G1 X104.524 Y101.761 E2.53174
G1 X105.306 Y101.274 E2.55012
G1 X106.127 Y100.858 E2.56849
G1 X106.981 Y100.514 E2.58686
G1 X107.861 Y100.245 E2.60522
G1 X108.762 Y100.054 E2.6236
G1 X109.676 Y99.942 E2.64198
G1 X110.212 Y99.913 E2.65269
G1 X110.83 Y99.9 E2.66503
G1 X123.793 Y99.9 E2.92372
G1 X124.643 Y99.911 E2.94068
G1 X125.562 Y99.964 E2.95905
G1 X126.473 Y100.097 E2.97743
G1 X127.369 Y100.308 E2.9958
G1 X128.243 Y100.596 E3.01416
G1 X129.09 Y100.959 E3.03255
G1 X129.901 Y101.394 E3.05092
G1 X130.671 Y101.898 E3.06928
G1 X131.395 Y102.467 E3.08766
G1 X132.067 Y103.097 E3.10604
G1 X132.682 Y103.782 E3.12441
G1 X133.235 Y104.518 E3.14278
G1 X133.722 Y105.299 E3.16115
G1 X134.139 Y106.12 E3.17953
G1 X134.484 Y106.974 E3.19791
G1 X134.753 Y107.854 E3.21627
G1 X134.945 Y108.755 E3.23465
G1 X135.058 Y109.668 E3.25301
G1 X135.087 Y110.212 E3.26388
G1 X135.1 Y110.83 E3.27622
G1 X135.099 Y112.712 E3.31378
G1 X135.084 Y113.77 E3.33489
G1 X135.017 Y116.153 E3.38247
G1 X135.017 Y118.704 E3.43337
G1 X135.1 Y122.014 E3.49945
G1 X135.099 Y123.91 E3.53729
G1 X135.089 Y124.637 E3.5518
G1 X135.036 Y125.556 E3.57017
G1 X134.904 Y126.467 E3.58854
G1 X134.693 Y127.363 E3.60691
G1 X134.406 Y128.238 E3.62528
G1 X134.043 Y129.084 E3.64365
G1 X133.609 Y129.896 E3.66203
G1 X133.105 Y130.667 E3.68041
G1 X132.537 Y131.391 E3.69877
G1 X131.908 Y132.063 E3.71714
G1 X131.223 Y132.678 E3.73551
G1 X130.487 Y133.231 E3.75388
G1 X129.706 Y133.719 E3.77226
G1 X128.886 Y134.137 E3.79063
G1 X128.032 Y134.482 E3.80901
G1 X127.152 Y134.751 E3.82737
G1 X126.251 Y134.944 E3.84576
G1 X125.338 Y135.057 E3.86412
G1 X124.788 Y135.087 E3.87511
G1 X124.17 Y135.1 E3.88745
G1 X111.07 Y135.099 E4.14887
G1 X110.372 Y135.09 E4.1628
G1 X109.453 Y135.038 E4.18117
G1 X108.542 Y134.907 E4.19954
G1 X107.646 Y134.697 E4.21791
G1 X106.771 Y134.41 E4.23628
G1 X105.924 Y134.048 E4.25466
G1 X105.112 Y133.614 E4.27304
G1 X104.341 Y133.112 E4.2914
G1 X103.616 Y132.544 E4.30978
G1 X102.943 Y131.915 E4.32816
G1 X102.328 Y131.231 E4.34652
G1 X101.774 Y130.496 E4.36488
G1 X101.286 Y129.715 E4.38326
G1 X100.867 Y128.895 E4.40164
G1 X100.521 Y128.042 E4.42001
G1 X100.251 Y127.162 E4.43838
G1 X100.058 Y126.261 E4.45677
G1 X99.944 Y125.348 E4.47513
G1 X99.913 Y124.777 E4.48654
G1 X99.9 Y124.158 E4.4989
G1 X99.901 Y122.265 E4.53667
G1 X99.916 Y121.229 E4.55735
G1 X99.983 Y118.846 E4.60492
G1 X99.983 Y116.276 E4.65621
G1 X99.9 Y112.985 E4.72191
G1 X99.901 Y111.015 E4.76122
G1 X99.911 Y110.35 E4.77449
G1 X99.965 Y109.431 E4.79286
G1 X100.098 Y108.52 E4.81124
G1 X100.31 Y107.624 E4.82961
G1 X100.599 Y106.749 E4.848
G1 X100.963 Y105.904 E4.86636
G1 X101.398 Y105.093 E4.88473
G1 X101.903 Y104.322 E4.90312
G1 X102.472 Y103.599 E4.92148
G1 X103.102 Y102.927 E4.93986
G0 F6000 X103.493 Y103.106
G1 F1200 X104.175 Y102.514 E4.95788
G1 X104.907 Y101.985 E4.97591
G1 X105.683 Y101.523 E4.99393
G1 X106.497 Y101.132 E5.01195
G1 X107.342 Y100.813 E5.02998
G1 X108.212 Y100.571 E5.048
G1 X109.1 Y100.407 E5.06602
G1 X110.223 Y100.313 E5.08851
G1 X110.83 Y100.3 E5.10062
G1 X123.793 Y100.3 E5.35931
G1 X124.637 Y100.311 E5.37616
G1 X125.539 Y100.364 E5.39419
G1 X126.432 Y100.496 E5.4122
G1 X127.31 Y100.707 E5.43022
G1 X128.166 Y100.995 E5.44825
G1 X128.993 Y101.357 E5.46626
G1 X129.785 Y101.792 E5.48429
G1 X130.536 Y102.294 E5.50232
G1 X131.239 Y102.861 E5.52035
G1 X131.889 Y103.488 E5.53837
G1 X132.481 Y104.17 E5.55639
G1 X133.011 Y104.901 E5.57441
G1 X133.473 Y105.677 E5.59243
G1 X133.866 Y106.49 E5.61045
G1 X134.184 Y107.335 E5.62847
G1 X134.427 Y108.205 E5.6465
G1 X134.592 Y109.093 E5.66452
G1 X134.687 Y110.223 E5.68715
G1 X134.7 Y110.83 E5.69927
G1 X134.699 Y112.707 E5.73672
G1 X134.684 Y113.759 E5.75772
G1 X134.617 Y116.142 E5.80529
G1 X134.617 Y118.715 E5.85664
G1 X134.696 Y121.716 E5.91655
G1 X134.699 Y123.904 E5.96021
G1 X134.689 Y124.631 E5.97472
G1 X134.637 Y125.533 E5.99275
G1 X134.505 Y126.426 E6.01077
G1 X134.294 Y127.305 E6.02881
G1 X134.007 Y128.161 E6.04682
G1 X133.645 Y128.988 E6.06484
G1 X133.211 Y129.78 E6.08286
G1 X132.709 Y130.531 E6.10089
G1 X132.143 Y131.234 E6.1189
G1 X131.516 Y131.885 E6.13694
G1 X130.835 Y132.477 E6.15495
G1 X130.104 Y133.007 E6.17296
G1 X129.328 Y133.47 E6.191
G1 X128.515 Y133.863 E6.20902
G1 X127.67 Y134.183 E6.22705
G1 X126.801 Y134.426 E6.24506
G1 X125.913 Y134.591 E6.26308
G1 X124.777 Y134.687 E6.28583
G1 X124.17 Y134.7 E6.29795
G1 X111.075 Y134.699 E6.55927
G1 X110.377 Y134.69 E6.5732
G1 X109.476 Y134.639 E6.59121
G1 X108.582 Y134.507 E6.60925
G1 X107.704 Y134.298 E6.62726
G1 X106.847 Y134.011 E6.64529
G1 X106.02 Y133.65 E6.6633
G1 X105.227 Y133.217 E6.68133
G1 X104.476 Y132.716 E6.69935
G1 X103.772 Y132.15 E6.71737
G1 X103.121 Y131.524 E6.7354
G1 X102.528 Y130.843 E6.75342
G1 X101.998 Y130.112 E6.77144
G1 X101.534 Y129.337 E6.78946
G1 X101.14 Y128.524 E6.80749
G1 X100.82 Y127.68 E6.8255
G1 X100.576 Y126.81 E6.84354
G1 X100.41 Y125.922 E6.86156
G1 X100.313 Y124.767 E6.88469
G1 X100.3 Y124.158 E6.89685
G1 X100.301 Y122.27 E6.93453
G1 X100.316 Y121.24 E6.95508
G1 X100.383 Y118.857 E7.00266
G1 X100.383 Y116.267 E7.05434
G1 X100.304 Y113.283 E7.11391
G1 X100.301 Y111.021 E7.15905
G1 X100.311 Y110.356 E7.17233
G1 X100.365 Y109.454 E7.19036
G1 X100.498 Y108.561 E7.20838
G1 X100.709 Y107.683 E7.2264
G1 X100.998 Y106.827 E7.24443
G1 X101.361 Y106 E7.26245
G1 X101.795 Y105.209 E7.28046
G1 X102.298 Y104.458 E7.29849
G1 X102.866 Y103.756 E7.31651
G1 X103.493 Y103.106 E7.33454
G1 F2700 E2.33454
G1 F300 Z0.32
;MESH:Smashing Fyyran (19).stl
G0 F6000 X111.53 Y112.267 Z0.32
;TYPE:WALL-INNER
G1 F300 Z0.12
G1 F2700 E7.33454
G1 F1041.2 X112.028 Y112.267 E7.34599
G1 X111.992 Y112.155 E7.3487
G1 X111.992 Y111.777 E7.35739
G1 F1039 X112.081 Y111.531 E7.36342
G1 X111.531 Y111.531 E7.3761
G1 F1041.2 X111.53 Y112.267 E7.39302
G0 F6000 X111.1 Y112.697
G1 F1200 X112.673 Y112.696 E7.42442
G1 X112.537 Y112.51 E7.42901
G1 X112.422 Y112.155 E7.43646
G1 X112.422 Y111.805 E7.44345
G1 X112.536 Y111.491 E7.45011
G1 X112.72 Y111.239 E7.45634
G1 X112.911 Y111.1 E7.46105
G1 X111.1 Y111.1 E7.49719
G1 X111.1 Y112.697 E7.52906
G1 F2700 E2.52906
G1 F300 Z0.32
G0 F6000 X111.5 Y123.5 Z0.32
G1 F300 Z0.12
G1 F2700 E7.52906
G1 F1200 X123.5 Y123.5 E7.76854
G1 X123.5 Y123.101 E7.7765
G1 X123.5 Y122.702 E7.78446
G1 X121.398 Y122.702 E7.82641
G1 X120.798 Y122.502 E7.83903
G1 X120.474 Y122.087 E7.84954
G1 X120.398 Y121.702 E7.85737
G1 X120.398 Y120.352 E7.88431
G1 X120.531 Y119.997 E7.89187
G1 X120.666 Y119.814 E7.89641
G1 X120.952 Y119.581 E7.90377
G1 X121.398 Y119.497 E7.91283
G1 X122.448 Y119.497 E7.93378
G1 X122.448 Y115.502 E8.01351
G1 X121.398 Y115.502 E8.03446
G1 X120.954 Y115.42 E8.04347
G1 X120.666 Y115.185 E8.05089
G1 X120.464 Y114.862 E8.05849
G1 X120.401 Y114.589 E8.06409
G1 X120.398 Y113.297 E8.08987
G1 X120.434 Y113.04 E8.09505
G1 X120.147 Y112.656 E8.10461
G1 X120.022 Y112.155 E8.11492
G1 X120.022 Y111.845 E8.12111
G1 X120.134 Y111.5 E8.12834
G1 X114.894 Y111.501 E8.23291
G1 X114.956 Y111.689 E8.23686
G1 X114.954 Y112.316 E8.24938
G1 X114.831 Y112.687 E8.25718
G1 X114.671 Y112.941 E8.26317
G1 X114.564 Y113.041 E8.26609
G1 X114.603 Y113.209 E8.26953
G1 X114.6 Y114.589 E8.29707
G1 X114.537 Y114.862 E8.30266
G1 X114.333 Y115.187 E8.31032
G1 X114.117 Y115.361 E8.31586
G1 X113.945 Y115.443 E8.31966
G1 X113.603 Y115.502 E8.32658
G1 X112.503 Y115.502 E8.34854
G1 X112.503 Y119.497 E8.42826
G1 X113.603 Y119.497 E8.45021
G1 X113.945 Y119.556 E8.45714
G1 X114.117 Y119.638 E8.46094
G1 X114.333 Y119.812 E8.46647
G1 X114.47 Y119.997 E8.47107
G1 X114.604 Y120.355 E8.4787
G1 X114.603 Y121.702 E8.50558
G1 X114.527 Y122.088 E8.51343
G1 X114.203 Y122.503 E8.52394
G1 X113.744 Y122.702 E8.53392
G1 X111.5 Y122.702 E8.5787
G1 X111.5 Y123.5 E8.59463
G0 F6000 X111.1 Y123.9
G1 F1200 X123.9 Y123.9 E8.85006
G1 X123.9 Y123.101 E8.86601
G1 X123.9 Y122.302 E8.88195
G1 X121.398 Y122.302 E8.93188
G1 X121.038 Y122.182 E8.93946
G1 X120.844 Y121.933 E8.94576
G1 X120.798 Y121.702 E8.95046
G1 X120.798 Y120.418 E8.97608
G1 X120.837 Y120.281 E8.97892
G1 X121.01 Y120.038 E8.98488
G1 X121.18 Y119.937 E8.98882
G1 X121.398 Y119.897 E8.99324
G1 X122.848 Y119.897 E9.02218
G1 X122.848 Y115.102 E9.11787
G1 X121.398 Y115.102 E9.14681
G1 X121.18 Y115.062 E9.15123
G1 X121.01 Y114.961 E9.15518
G1 X120.837 Y114.718 E9.16113
G1 X120.8 Y114.555 E9.16446
G1 X120.798 Y113.297 E9.18957
G1 X120.837 Y113.082 E9.19393
G1 X120.922 Y112.934 E9.19734
G1 X120.761 Y112.818 E9.2013
G1 X120.493 Y112.44 E9.21054
G1 X120.422 Y112.155 E9.2164
G1 X120.422 Y111.845 E9.22259
G1 X120.536 Y111.491 E9.23001
G1 X120.72 Y111.239 E9.23624
G1 X120.911 Y111.1 E9.24095
G1 X114.111 Y111.101 E9.37665
G1 X114.333 Y111.281 E9.38236
G1 X114.479 Y111.519 E9.38793
G1 X114.575 Y111.813 E9.3941
G1 X114.574 Y112.19 E9.40162
G1 X114.449 Y112.553 E9.40929
G1 X114.365 Y112.683 E9.41237
G1 X114.059 Y112.927 E9.42019
G1 X114.167 Y113.088 E9.42405
G1 X114.2 Y113.228 E9.42692
G1 X114.204 Y114.502 E9.45235
G1 X114.164 Y114.718 E9.45673
G1 X113.987 Y114.964 E9.46278
G1 X113.808 Y115.067 E9.4669
G1 X113.603 Y115.102 E9.47105
G1 X112.103 Y115.102 E9.50099
G1 X112.103 Y119.897 E9.59668
G1 X113.603 Y119.897 E9.62661
G1 X113.808 Y119.932 E9.63076
G1 X113.987 Y120.035 E9.63488
G1 X114.164 Y120.281 E9.64093
G1 X114.204 Y120.497 E9.64531
G1 X114.203 Y121.702 E9.66936
G1 X114.157 Y121.934 E9.67408
G1 X113.963 Y122.183 E9.68038
G1 X113.689 Y122.302 E9.68634
G1 X111.1 Y122.302 E9.73801
G1 X111.1 Y123.9 E9.7699
G1 F2700 E4.7699
G1 F300 Z0.32
G0 F6000 X113.291 Y112.683 Z0.32
;TYPE:WALL-OUTER
G1 F300 Z0.12
G1 F2700 E9.7699
G1 F1188.1 X113.044 Y112.526 E9.7758
G1 F1200 X112.86 Y112.274 E9.78202
G1 X112.822 Y112.155 E9.78452
G1 X112.822 Y111.845 E9.7907
G1 X112.86 Y111.727 E9.79318
G1 F1129.4 X113.07 Y111.438 E9.80075
G1 F1008.4 X113.457 Y111.248 E9.81099
G1 F948.6 X113.579 Y111.253 E9.81407
G1 F1030 X113.86 Y111.391 E9.82135
G1 F1167.9 X114.083 Y111.594 E9.82753
G1 F1200 X114.195 Y111.937 E9.83473
G1 X114.194 Y112.064 E9.83727
G1 X114.077 Y112.412 E9.84459
G1 F1197 X113.774 Y112.641 E9.85219
G1 F1182.3 X113.659 Y112.683 E9.85467
G1 F1173.6 X113.291 Y112.683 E9.86218
G1 F2700 E4.86218
G1 F300 Z0.32
G0 F6000 X123.476 Y112.273 Z0.32
;TYPE:WALL-INNER
G1 F300 Z0.12
G1 F2700 E9.86218
G1 F1057.3 X123.47 Y111.53 E9.87901
G1 F1043.5 X122.935 Y111.531 E9.89129
G1 X123.015 Y111.803 E9.8978
G1 F1057.3 X123.028 Y112.041 E9.90319
G1 F1071.4 X122.986 Y112.273 E9.90846
G1 X123.476 Y112.273 E9.91942
G0 F6000 X122.321 Y112.696
G1 F1200 X123.9 Y112.697 E9.95093
G1 X123.9 Y111.1 E9.9828
G1 X122.111 Y111.101 E10.0185
G1 X122.333 Y111.281 E10.0242
G1 X122.479 Y111.519 E10.02977
G1 X122.593 Y111.885 E10.03742
G1 X122.609 Y112.084 E10.04141
G1 X122.477 Y112.485 E10.04983
G1 X122.321 Y112.696 E10.05507
G0 F6000 X121.065 Y112.55
;TYPE:WALL-OUTER
G1 F1200 X120.822 Y112.219 E10.06326
G1 X120.822 Y111.845 E10.07073
G1 X120.86 Y111.727 E10.0732
G1 F1129.4 X121.07 Y111.438 E10.08078
G1 F1008.4 X121.457 Y111.248 E10.09101
G1 F948.6 X121.579 Y111.253 E10.0941
G1 F1030 X121.86 Y111.391 E10.10137
G1 F1167.9 X122.083 Y111.594 E10.10756
G1 F1200 X122.201 Y111.961 E10.11525
G1 X122.204 Y112.008 E10.11619
G1 X122.194 Y112.064 E10.11733
G1 X122.097 Y112.359 E10.12352
G1 X122.024 Y112.457 E10.12596
G1 F1191.1 X121.723 Y112.682 E10.13352
G1 F1176.5 X121.341 Y112.682 E10.14129
G1 F1185.2 X121.065 Y112.55 E10.14748
G1 F2700 E5.14748
G1 F300 Z0.32
G0 F6000 X110.7 Y124.3 Z0.32
G1 F300 Z0.12
G1 F2700 E10.14748
G1 F1200 X124.3 Y124.3 E10.41888
G1 X124.3 Y123.101 E10.44281
G1 X124.3 Y121.902 E10.46673
G1 X121.398 Y121.902 E10.52465
G1 X121.278 Y121.862 E10.52717
G1 X121.198 Y121.76 E10.52976
G1 X121.201 Y120.459 E10.55572
G1 X121.251 Y120.36 E10.55793
G1 X121.344 Y120.297 E10.56017
G1 X123.248 Y120.297 E10.59817
G1 X123.248 Y114.702 E10.70982
G1 X121.344 Y114.702 E10.74782
G1 X121.251 Y114.639 E10.75006
G1 X121.198 Y114.52 E10.75266
G1 X121.198 Y113.242 E10.77817
G1 F1194 X121.283 Y113.13 E10.78099
G1 F1176.5 X121.371 Y113.093 E10.78293
G1 F1185.2 X124.3 Y113.097 E10.84211
G1 F1200 X124.3 Y110.7 E10.88995
G1 X122.246 Y110.701 E10.93094
G1 F1167.9 X121.968 Y110.712 E10.93664
G1 F1093.4 X121.56 Y110.77 E10.94567
G1 F1118.9 X121.028 Y110.701 E10.95715
G1 F1197 X114.246 Y110.701 E11.09283
G1 F1167.9 X113.968 Y110.712 E11.09853
G1 F1093.4 X113.56 Y110.77 E11.10756
