;FLAVOR:Marlin
;TIME:895
;Filament used: 0.257321m
;Layer height: 0.12
;MINX:100.59
;MINY:99.002
;MINZ:0.12
;MAXX:134.41
;MAXY:136
;MAXZ:7.16
;Generated with Cura_SteamEngine 5.2.2
M140 S50
M105
M190 S50
M104 S200
M105
M109 S200
M82 ;absolute extrusion mode
; Ender 3 Custom Start G-code
G92 E0 ; Reset Extruder
G28 ; Home all axes
G1 Z2.0 F3000 ; Move Z Axis up little to prevent scratching of Heat Bed
G1 X0.1 Y20 Z0.3 F5000.0 ; Move to start position
G1 X0.1 Y200.0 Z0.3 F1500.0 E15 ; Draw the first line
G1 X0.4 Y200.0 Z0.3 F5000.0 ; Move to side a little
G1 X0.4 Y20 Z0.3 F1500.0 E30 ; Draw the second line
G92 E0 ; Reset Extruder
G1 Z2.0 F3000 ; Move Z Axis up little to prevent scratching of Heat Bed
G1 X5 Y20 Z0.3 F5000.0 ; Move over to prevent blob squish
G92 E0
G92 E0
G1 F2700 E-5
;LAYER_COUNT:58
;LAYER:0
M107
G1 F300 Z0.32
G0 F6000 X106.348 Y102.262 Z0.32
;TYPE:SKIRT
G1 F300 Z0.12
G1 F2700 E0
G1 F1200 X107.036 Y101.625 E0.01871
G1 X107.776 Y101.049 E0.03742
G1 X108.563 Y100.539 E0.05614
G1 X109.39 Y100.097 E0.07485
G1 X110.252 Y99.727 E0.09357
G1 X111.143 Y99.432 E0.1123
G1 X112.055 Y99.214 E0.13102
G1 X112.982 Y99.075 E0.14972
G1 X113.818 Y99.017 E0.16644
G1 X114.481 Y99.002 E0.17968
G1 X120.306 Y99.003 E0.29592
G1 X121.005 Y99.013 E0.30987
G1 X121.942 Y99.067 E0.3286
G1 X122.87 Y99.199 E0.34731
G1 X123.784 Y99.411 E0.36603
G1 X124.676 Y99.7 E0.38475
G1 X125.541 Y100.063 E0.40347
G1 X126.371 Y100.499 E0.42218
G1 X127.161 Y101.004 E0.44089
G1 X127.906 Y101.575 E0.45962
G1 X128.599 Y102.207 E0.47834
G1 X129.236 Y102.895 E0.49705
G1 X129.811 Y103.636 E0.51576
G1 X130.322 Y104.422 E0.53447
G1 X130.764 Y105.25 E0.5532
G1 X131.133 Y106.111 E0.5719
G1 X131.453 Y107.089 E0.59243
G1 X132.228 Y109.899 E0.6506
G1 X132.97 Y112.314 E0.70102
G1 X133.828 Y114.871 E0.75484
G1 X134.088 Y115.773 E0.77358
G1 X134.271 Y116.692 E0.79228
G1 X134.395 Y118.048 E0.81945
G1 X134.41 Y118.711 E0.83268
G1 X134.409 Y124.039 E0.93901
G1 X134.397 Y124.924 E0.95667
G1 X134.344 Y125.861 E0.9754
G1 X134.212 Y126.789 E0.99411
G1 X134.001 Y127.703 E1.01283
G1 X133.713 Y128.595 E1.03153
G1 X133.35 Y129.46 E1.05025
G1 X132.915 Y130.291 E1.06897
G1 X132.411 Y131.082 E1.08769
G1 X131.841 Y131.826 E1.10639
G1 X131.209 Y132.52 E1.12512
G1 X130.521 Y133.157 E1.14383
G1 X129.781 Y133.734 E1.16256
G1 X128.995 Y134.245 E1.18127
G1 X128.168 Y134.687 E1.19998
G1 X127.306 Y135.057 E1.2187
G1 X126.416 Y135.353 E1.23742
G1 X125.504 Y135.572 E1.25614
G1 X124.76 Y135.69 E1.27117
G1 X124.03 Y135.78 E1.28585
G1 X122.673 Y135.927 E1.31309
G1 X121.8 Y135.987 E1.33055
G1 X121.171 Y136 E1.34311
G1 X120.031 Y135.999 E1.36586
G1 X118.887 Y135.983 E1.38869
G1 X116.247 Y135.983 E1.44137
G1 X115.477 Y135.998 E1.45674
G1 X114.05 Y135.999 E1.48522
G1 X113.352 Y135.989 E1.49915
G1 X112.452 Y135.939 E1.51714
G1 X111.594 Y135.854 E1.53434
G1 X110.319 Y135.704 E1.55996
G1 X109.393 Y135.554 E1.57868
G1 X108.483 Y135.327 E1.5974
G1 X107.596 Y135.023 E1.61611
G1 X106.738 Y134.644 E1.63483
G1 X105.915 Y134.194 E1.65355
G1 X105.134 Y133.675 E1.67226
G1 X104.4 Y133.091 E1.69098
G1 X103.718 Y132.447 E1.7097
G1 X103.093 Y131.748 E1.72841
G1 X102.53 Y130.998 E1.74713
G1 X102.034 Y130.202 E1.76584
G1 X101.607 Y129.367 E1.78456
G1 X101.252 Y128.499 E1.80327
G1 X100.973 Y127.603 E1.822
G1 X100.771 Y126.688 E1.8407
G1 X100.648 Y125.758 E1.85942
G1 X100.608 Y125.089 E1.87279
G1 X100.59 Y124.282 E1.8889
G1 X100.59 Y119.076 E1.99279
G1 X100.604 Y118.181 E2.01066
G1 X100.659 Y117.245 E2.02937
G1 X100.795 Y116.317 E2.04809
G1 X101.009 Y115.403 E2.06682
G1 X101.178 Y114.854 E2.07828
G1 X102.01 Y112.384 E2.13029
G1 X102.759 Y109.944 E2.18123
G1 X103.553 Y107.077 E2.2406
G1 X103.841 Y106.185 E2.2593
G1 X104.205 Y105.321 E2.27801
G1 X104.64 Y104.49 E2.29673
G1 X105.145 Y103.7 E2.31544
G1 X105.716 Y102.955 E2.33417
G1 X106.348 Y102.262 E2.35289
G0 F6000 X106.703 Y102.472
G1 F1200 X107.386 Y101.854 E2.37127
G1 X108.119 Y101.298 E2.38963
G1 X108.898 Y100.807 E2.40801
G1 X109.716 Y100.386 E2.42637
G1 X110.569 Y100.037 E2.44476
G1 X111.448 Y99.763 E2.46313
G1 X112.347 Y99.567 E2.4815
G1 X113.26 Y99.45 E2.49986
G1 X113.83 Y99.417 E2.51126
G1 X114.481 Y99.402 E2.52425
G1 X120.149 Y99.402 E2.63736
G1 X121 Y99.413 E2.65435
G1 X121.919 Y99.466 E2.67272
G1 X122.83 Y99.599 E2.69109
G1 X123.726 Y99.81 E2.70946
G1 X124.6 Y100.098 E2.72783
G1 X125.446 Y100.461 E2.7462
G1 X126.258 Y100.896 E2.76458
G1 X127.028 Y101.4 E2.78295
G1 X127.752 Y101.969 E2.80132
G1 X128.424 Y102.598 E2.81969
G1 X129.039 Y103.284 E2.83808
G1 X129.592 Y104.02 E2.85645
G1 X130.079 Y104.801 E2.87481
G1 X130.496 Y105.622 E2.89319
G1 X130.841 Y106.476 E2.91157
G1 X131.067 Y107.195 E2.92661
G1 X131.845 Y110.017 E2.98503
G1 X132.583 Y112.42 E3.03519
G1 X133.449 Y114.999 E3.08949
G1 X133.704 Y115.883 E3.10785
G1 X133.881 Y116.787 E3.12623
G1 X133.995 Y118.059 E3.15171
G1 X134.01 Y118.711 E3.16473
G1 X134.009 Y124.034 E3.27096
G1 X133.997 Y124.919 E3.28862
G1 X133.945 Y125.838 E3.30699
G1 X133.813 Y126.749 E3.32536
G1 X133.602 Y127.645 E3.34373
G1 X133.314 Y128.52 E3.36211
G1 X132.952 Y129.366 E3.38047
G1 X132.518 Y130.178 E3.39885
G1 X132.014 Y130.949 E3.41723
G1 X131.446 Y131.673 E3.43559
G1 X130.817 Y132.346 E3.45398
G1 X130.132 Y132.961 E3.47235
G1 X129.397 Y133.514 E3.4907
G1 X128.616 Y134.002 E3.50908
G1 X127.795 Y134.42 E3.52747
G1 X126.942 Y134.765 E3.54583
G1 X126.062 Y135.035 E3.5642
G1 X124.71 Y135.293 E3.59166
G1 X123.987 Y135.382 E3.6062
G1 X122.63 Y135.529 E3.63344
G1 X121.789 Y135.587 E3.65026
G1 X121.171 Y135.6 E3.6626
G1 X120.037 Y135.599 E3.68523
G1 X118.893 Y135.583 E3.70806
G1 X116.238 Y135.583 E3.76104
G1 X115.476 Y135.598 E3.77625
G1 X114.056 Y135.599 E3.80459
G1 X113.358 Y135.589 E3.81852
G1 X112.49 Y135.541 E3.83587
G1 X111.859 Y135.48 E3.84852
G1 X110.365 Y135.306 E3.87854
G1 X109.457 Y135.159 E3.89689
G1 X108.564 Y134.934 E3.91527
G1 X107.694 Y134.632 E3.93365
G1 X106.854 Y134.255 E3.95202
G1 X106.05 Y133.807 E3.97039
G1 X105.287 Y133.291 E3.98877
G1 X104.573 Y132.711 E4.00713
G1 X103.911 Y132.071 E4.02551
G1 X103.307 Y131.376 E4.04388
G1 X102.766 Y130.631 E4.06225
G1 X102.291 Y129.842 E4.08063
G1 X101.887 Y129.015 E4.099
G1 X101.556 Y128.156 E4.11737
G1 X101.301 Y127.271 E4.13575
G1 X101.124 Y126.368 E4.15411
G1 X101.008 Y125.077 E4.17998
G1 X100.99 Y124.282 E4.19585
G1 X100.99 Y119.076 E4.29974
G1 X101.004 Y118.188 E4.31747
G1 X101.059 Y117.269 E4.33584
G1 X101.194 Y116.358 E4.35422
G1 X101.408 Y115.462 E4.3726
G1 X101.557 Y114.982 E4.38263
G1 X102.4 Y112.481 E4.4353
G1 X103.132 Y110.097 E4.48507
G1 X103.938 Y107.184 E4.54538
G1 X104.222 Y106.308 E4.56376
G1 X104.581 Y105.461 E4.58212
G1 X105.012 Y104.647 E4.6005
G1 X105.512 Y103.874 E4.61887
G1 X106.077 Y103.147 E4.63725
G1 X106.703 Y102.472 E4.65562
G0 F6000 X107.058 Y102.685
G1 F1200 X107.734 Y102.086 E4.67364
G1 X108.46 Y101.549 E4.69166
G1 X109.231 Y101.078 E4.70969
G1 X110.041 Y100.678 E4.72772
G1 X110.883 Y100.351 E4.74575
G1 X111.75 Y100.099 E4.76376
G1 X112.636 Y99.926 E4.78178
G1 X113.842 Y99.817 E4.80594
G1 X114.481 Y99.802 E4.8187
G1 X120.149 Y99.802 E4.93181
G1 X120.994 Y99.813 E4.94867
G1 X121.895 Y99.866 E4.96669
G1 X122.789 Y99.998 E4.98472
G1 X123.667 Y100.209 E5.00274
G1 X124.523 Y100.497 E5.02076
G1 X125.35 Y100.859 E5.03878
G1 X126.142 Y101.293 E5.0568
G1 X126.893 Y101.796 E5.07484
G1 X127.596 Y102.363 E5.09286
G1 X128.246 Y102.99 E5.11089
G1 X128.838 Y103.672 E5.12891
G1 X129.367 Y104.403 E5.14692
G1 X129.83 Y105.179 E5.16495
G1 X130.222 Y105.992 E5.18296
G1 X130.541 Y106.837 E5.20098
G1 X130.681 Y107.302 E5.21068
G1 X131.453 Y110.105 E5.2687
G1 X132.202 Y112.539 E5.31952
G1 X133.07 Y115.126 E5.37397
G1 X133.319 Y115.994 E5.39199
G1 X133.49 Y116.881 E5.41002
G1 X133.596 Y118.071 E5.43386
G1 X133.61 Y118.711 E5.44664
G1 X133.609 Y124.028 E5.55274
G1 X133.597 Y124.913 E5.5704
G1 X133.545 Y125.815 E5.58843
G1 X133.413 Y126.708 E5.60645
G1 X133.203 Y127.587 E5.62448
G1 X132.916 Y128.443 E5.6425
G1 X132.554 Y129.27 E5.66052
G1 X132.12 Y130.063 E5.67856
G1 X131.619 Y130.813 E5.69656
G1 X131.052 Y131.517 E5.7146
G1 X130.426 Y132.167 E5.7326
G1 X129.744 Y132.76 E5.75064
G1 X129.013 Y133.29 E5.76866
G1 X128.238 Y133.754 E5.78668
G1 X127.425 Y134.146 E5.8047
G1 X126.58 Y134.466 E5.82273
G1 X125.711 Y134.709 E5.84073
G1 X124.661 Y134.897 E5.86202
G1 X123.944 Y134.985 E5.87644
G1 X122.587 Y135.132 E5.90368
G1 X121.777 Y135.187 E5.91988
G1 X121.171 Y135.2 E5.93197
G1 X120.042 Y135.199 E5.9545
G1 X118.898 Y135.183 E5.97734
G1 X116.274 Y135.183 E6.0297
G1 X115.683 Y135.196 E6.0415
G1 X114.062 Y135.199 E6.07385
G1 X113.364 Y135.189 E6.08778
G1 X112.529 Y135.143 E6.10447
G1 X111.898 Y135.082 E6.11712
G1 X110.412 Y134.909 E6.14697
G1 X109.521 Y134.764 E6.16499
G1 X108.646 Y134.541 E6.18301
G1 X107.794 Y134.241 E6.20103
G1 X106.972 Y133.867 E6.21905
G1 X106.186 Y133.421 E6.23709
G1 X105.443 Y132.908 E6.25511
G1 X104.748 Y132.331 E6.27313
G1 X104.107 Y131.695 E6.29115
G1 X103.525 Y131.005 E6.30917
G1 X103.006 Y130.266 E6.32719
G1 X102.554 Y129.484 E6.34521
G1 X102.173 Y128.665 E6.36324
G1 X101.867 Y127.816 E6.38125
G1 X101.636 Y126.942 E6.39929
G1 X101.484 Y126.052 E6.41731
G1 X101.408 Y125.066 E6.43704
G1 X101.39 Y124.282 E6.45269
G1 X101.391 Y118.903 E6.56004
G1 X101.403 Y118.194 E6.57419
G1 X101.459 Y117.293 E6.5922
G1 X101.593 Y116.4 E6.61022
G1 X101.936 Y115.109 E6.63688
G1 X102.778 Y112.611 E6.68949
G1 X103.526 Y110.173 E6.74038
G1 X104.324 Y107.291 E6.80006
G1 X104.603 Y106.432 E6.81808
G1 X104.957 Y105.601 E6.8361
G1 X105.383 Y104.805 E6.85412
G1 X105.878 Y104.05 E6.87214
G1 X106.438 Y103.341 E6.89017
G1 X107.058 Y102.685 E6.90818
G1 F2700 E1.90818
G1 F300 Z0.32
;MESH:Smashing Fyyran (26).stl
G0 F6000 X115.147 Y117.997 Z0.32
;TYPE:WALL-INNER
G1 F300 Z0.12
G1 F2700 E6.90818
G1 F1200 X119.857 Y117.997 E7.00217
G1 X119.857 Y115.972 E7.04258
G1 F973.6 X119.764 Y115.244 E7.06064
G1 F826.2 X119.768 Y111.09 E7.18104
G1 F831.9 X119.191 Y111.09 E7.19765
G1 F829 X119.191 Y115.181 E7.31583
G1 F979.6 X118.886 Y115.632 E7.32914
G1 F1200 X118.442 Y115.947 E7.34
G1 X118.224 Y116.006 E7.34451
G1 X116.898 Y116.006 E7.37097
G1 X116.559 Y115.948 E7.37783
G1 X116.117 Y115.632 E7.38868
G1 F979.6 X115.811 Y115.182 E7.40198
G1 F831.9 X115.811 Y111.089 E7.5198
G1 F834.8 X115.235 Y111.089 E7.53633
G1 F827.6 X115.24 Y115.245 E7.65659
G1 F973.6 X115.146 Y115.973 E7.67464
G1 F1200 X115.147 Y117.997 E7.71503
G1 F2700 E2.71503
G1 F300 Z0.32
G0 F6000 X114.5 Y124 Z0.32
G1 F300 Z0.12
G1 F2700 E7.71503
G1 F1200 X114.532 Y123.747 E7.72012
G1 X114.735 Y123.354 E7.72895
G1 F1197 X115.026 Y123.117 E7.73646
G1 F1179.4 X115.327 Y123.008 E7.74296
G1 X114.998 Y123.003 E7.74964
G1 F1197 X114.629 Y122.932 E7.75716
G1 F1200 X114.412 Y122.813 E7.7621
G1 X114.143 Y122.523 E7.76999
G1 X113.998 Y122.138 E7.7782
G1 X113.998 Y119.051 E7.8398
G1 X113.5 Y119.203 E7.85019
G1 X112.59 Y119.203 E7.86835
G1 X112.591 Y123.797 E7.96003
G1 X113.616 Y123.798 E7.98049
G1 X114.03 Y123.948 E7.98928
G1 X114.058 Y123.999 E7.99044
G1 X114.5 Y124 E7.99926
G1 F2700 E2.99926
G1 F300 Z0.32
G0 F6000 X120.5 Y124 Z0.32
G1 F300 Z0.12
G1 F2700 E7.99926
G1 F1200 X120.942 Y124 E8.00808
G1 X120.971 Y123.949 E8.00925
G1 X121.378 Y123.798 E8.01791
G1 X122.41 Y123.798 E8.03851
G1 X122.41 Y119.203 E8.1302
G1 X121.5 Y119.202 E8.14836
G1 X121.004 Y119.051 E8.15871
G1 X121.004 Y122.138 E8.22032
G1 X120.857 Y122.524 E8.22856
G1 X120.589 Y122.814 E8.23644
G1 X120.372 Y122.932 E8.24137
G1 X120.003 Y123.002 E8.24886
G1 F1203 X119.5 Y123.001 E8.25888
G1 X119.974 Y123.118 E8.26859
G1 F1200 X120.266 Y123.355 E8.2761
G1 X120.468 Y123.747 E8.2849
G1 X120.5 Y124 E8.28999
G1 F2700 E3.28999
G1 F300 Z0.32
G0 F6000 X113.88 Y124.399 Z0.32
G1 F300 Z0.12
G1 F2700 E8.28999
G1 F1200 X114.9 Y124.4 E8.31034
G1 X114.9 Y123.899 E8.32034
G1 X115.041 Y123.612 E8.32672
G1 X115.216 Y123.471 E8.33121
G1 X115.419 Y123.4 E8.3355
G1 X119.5 Y123.4 E8.41694
G1 X119.785 Y123.471 E8.4228
G1 X119.96 Y123.613 E8.4273
G1 X120.1 Y123.899 E8.43365
G1 X120.1 Y124.4 E8.44365
G1 X121.12 Y124.4 E8.46401
G1 X121.182 Y124.288 E8.46656
G1 X121.429 Y124.198 E8.47181
G1 X122.81 Y124.198 E8.49937
G1 X122.81 Y118.803 E8.60703
G1 X121.5 Y118.802 E8.63317
G1 X121.136 Y118.691 E8.64077
G1 X121.093 Y118.602 E8.64274
G1 X120.857 Y118.602 E8.64745
G1 F1050.3 X120.473 Y118.536 E8.65633
G1 X120.604 Y118.927 E8.66573
G1 F1200 X120.604 Y122.082 E8.7287
G1 X120.516 Y122.315 E8.73367
G1 X120.355 Y122.49 E8.73841
G1 X120.225 Y122.56 E8.74136
G1 X120.003 Y122.602 E8.74587
G1 X114.998 Y122.602 E8.84575
G1 X114.776 Y122.56 E8.85026
G1 X114.646 Y122.489 E8.85321
G1 X114.485 Y122.315 E8.85794
G1 X114.398 Y122.084 E8.86287
G1 X114.404 Y118.903 E8.92635
G1 F1050.3 X114.529 Y118.536 E8.93519
G1 X114.147 Y118.602 E8.94403
G1 F1200 X113.908 Y118.603 E8.9488
G1 X113.867 Y118.691 E8.95073
G1 X113.5 Y118.803 E8.95839
G1 X112.19 Y118.803 E8.98453
G1 X112.191 Y124.197 E9.09218
G1 X113.571 Y124.198 E9.11972
G1 X113.818 Y124.288 E9.12496
G1 X113.88 Y124.399 E9.1275
G1 F2700 E4.1275
G1 F300 Z0.32
G0 F6000 X115.327 Y123.008 Z0.32
G1 F300 Z0.12
G1 F2700 E9.1275
G1 F1185.2 X115.5 Y123.001 E9.131
G1 F1206 X119.5 Y123.001 E9.21042
G1 F2700 E4.21042
G1 F300 Z0.32
G0 F6000 X114.615 Y118.462 Z0.32
G1 F300 Z0.12
G1 F2700 E9.21042
G1 F1050.3 X114.998 Y118.397 E9.21928
G1 F1200 X120.003 Y118.396 E9.31916
G1 F1050.3 X120.387 Y118.462 E9.32804
G1 X120.257 Y118.076 E9.33733
G1 F1200 X120.256 Y110.602 E9.48648
G1 X118.703 Y110.602 E9.51747
G1 X118.703 Y115.095 E9.60714
G1 X118.573 Y115.382 E9.61342
G1 X118.307 Y115.571 E9.61994
G1 X118.177 Y115.606 E9.62262
G1 X116.898 Y115.606 E9.64815
G1 X116.695 Y115.571 E9.65226
G1 X116.429 Y115.382 E9.65877
G1 X116.298 Y115.092 E9.66512
G1 X116.298 Y110.602 E9.75472
G1 X114.748 Y110.602 E9.78565
G1 X114.747 Y118.079 E9.93487
G1 F1050.3 X114.615 Y118.462 E9.9441
G1 F2700 E4.9441
G1 F300 Z0.32
G0 F6000 X114.88 Y122.165 Z0.32
;TYPE:WALL-OUTER
G1 F300 Z0.12
G1 F2700 E9.9441
G1 F1200 X114.8 Y122.037 E9.94712
G1 X114.8 Y118.965 E10.00842
G1 X114.855 Y118.856 E10.01086
G1 X114.998 Y118.797 E10.01394
G1 X120.003 Y118.796 E10.11382
G1 X120.147 Y118.856 E10.11694
G1 X120.201 Y118.966 E10.11938
G1 X120.201 Y122.037 E10.18067
G1 X120.077 Y122.188 E10.18457
G1 X120.003 Y122.202 E10.18607
G1 X114.998 Y122.202 E10.28595
G1 X114.88 Y122.165 E10.28842
G1 F2700 E5.28842
G1 F300 Z0.32
G0 F6000 X113.702 Y124.798 Z0.32
G1 F300 Z0.12
G1 F2700 E10.28842
G1 F1200 X115.3 Y124.8 E10.32031
G1 X115.3 Y123.961 E10.33705
G1 X115.347 Y123.87 E10.33909
G1 X115.465 Y123.802 E10.34181
G1 X119.577 Y123.8 E10.42387
G1 X119.7 Y123.961 E10.42792
G1 X119.7 Y124.8 E10.44466
G1 X121.298 Y124.798 E10.47655
G1 X121.394 Y124.628 E10.48044
G1 X121.466 Y124.6 E10.48199
G1 X123.21 Y124.598 E10.51679
G1 X123.21 Y118.403 E10.64042
G1 X121.5 Y118.402 E10.67454
G1 X121.375 Y118.359 E10.67718
G1 X121.3 Y118.202 E10.68065
G1 X120.857 Y118.202 E10.68949
G1 X120.713 Y118.143 E10.6926
G1 X120.659 Y118.033 E10.69504
G1 X120.656 Y110.202 E10.85132
G1 X118.303 Y110.202 E10.89828
G1 X118.301 Y115.041 E10.99484
G1 X118.26 Y115.132 E10.99684
G1 X118.158 Y115.204 E10.99933
G1 X116.846 Y115.206 E11.02551
G1 X116.741 Y115.132 E11.02807
G1 X116.7 Y115.041 E11.03007
G1 X116.698 Y110.202 E11.12663
G1 X114.348 Y110.202 E11.17353
G1 X114.345 Y118.034 E11.32983
G1 X114.29 Y118.143 E11.33226
G1 X114.147 Y118.202 E11.33535
G1 X113.701 Y118.203 E11.34425
G1 X113.625 Y118.36 E11.34773
G1 X113.5 Y118.403 E11.35037
G1 X111.79 Y118.403 E11.38449
G1 X111.791 Y124.597 E11.5081
G1 X113.534 Y124.6 E11.54288
G1 X113.606 Y124.628 E11.54443
G1 X113.702 Y124.798 E11.54832
G0 F6000 X114.206 Y123.638
;TYPE:SKIN
G1 F1200 X114.276 Y123.403 E11.55322
G1 X114.399 Y123.214 E11.55772
G1 X114.184 Y123.092 E11.56265
G1 X113.835 Y122.711 E11.57296
G1 F1100.9 X113.568 Y122.183 E11.58583
G1 F944.9 X113.566 Y119.635 E11.65041
G1 F882.4 X113.022 Y119.635 E11.66517
G1 F880.7 X113.025 Y122.249 E11.73625
G1 F909.1 X113.005 Y122.351 E11.73898
G1 F1057.3 X112.951 Y122.832 E11.74995
G1 F1200 X112.952 Y123.435 E11.76198
G1 X113.659 Y123.438 E11.77609
G1 X113.976 Y123.523 E11.78264
