;FLAVOR:Marlin
;TIME:2190
;Filament used: 0.617071m
;Layer height: 0.12
;MINX:97.5
;MINY:97.5
;MINZ:0.12
;MAXX:137.5
;MAXY:137.5
;MAXZ:16.16
;Generated with Cura_SteamEngine 5.2.2
M140 S50
M105
M190 S50
M104 S200
M105
M109 S200
M82 ;absolute extrusion mode
; Ender 3 Custom Start G-code
G92 E0 ; Reset Extruder
G28 ; Home all axes
G1 Z2.0 F3000 ; Move Z Axis up little to prevent scratching of Heat Bed
G1 X0.1 Y20 Z0.3 F5000.0 ; Move to start position
G1 X0.1 Y200.0 Z0.3 F1500.0 E15 ; Draw the first line
G1 X0.4 Y200.0 Z0.3 F5000.0 ; Move to side a little
G1 X0.4 Y20 Z0.3 F1500.0 E30 ; Draw the second line
G92 E0 ; Reset Extruder
G1 Z2.0 F3000 ; Move Z Axis up little to prevent scratching of Heat Bed
G1 X5 Y20 Z0.3 F5000.0 ; Move over to prevent blob squish
G92 E0
G92 E0
G1 F2700 E-5
;LAYER_COUNT:133
;LAYER:0
M107
G1 F300 Z0.32
G0 F6000 X100.698 Y100.764 Z0.32
;TYPE:SKIRT
G1 F300 Z0.12
G1 F2700 E0
G1 F1200 X101.386 Y100.127 E0.01871
G1 X102.126 Y99.551 E0.03742
G1 X102.912 Y99.039 E0.05614
G1 X103.739 Y98.597 E0.07486
G1 X104.601 Y98.227 E0.09358
G1 X105.491 Y97.931 E0.11229
G1 X106.403 Y97.713 E0.13101
G1 X107.33 Y97.572 E0.14972
G1 X108.201 Y97.513 E0.16714
G1 X108.83 Y97.5 E0.1797
G1 X125.951 Y97.501 E0.52136
G1 X126.649 Y97.511 E0.5353
G1 X127.585 Y97.565 E0.55401
G1 X128.513 Y97.697 E0.57271
G1 X129.427 Y97.909 E0.59143
G1 X130.319 Y98.198 E0.61015
G1 X131.184 Y98.561 E0.62887
G1 X132.014 Y98.997 E0.64758
G1 X132.805 Y99.502 E0.6663
G1 X133.549 Y100.073 E0.68502
G1 X134.242 Y100.705 E0.70374
G1 X134.879 Y101.393 E0.72245
G1 X135.454 Y102.134 E0.74117
G1 X135.965 Y102.92 E0.75988
G1 X136.407 Y103.748 E0.77861
G1 X136.776 Y104.61 E0.79732
G1 X137.071 Y105.5 E0.81603
G1 X137.289 Y106.412 E0.83474
G1 X137.429 Y107.34 E0.85347
G1 X137.487 Y108.201 E0.87069
G1 X137.5 Y108.83 E0.88325
G1 X137.5 Y115.796 E1.02226
G1 X137.49 Y118.676 E1.07973
G1 X137.5 Y119.6 E1.09817
G1 X137.499 Y125.9 E1.2239
G1 X137.49 Y126.627 E1.23841
G1 X137.439 Y127.564 E1.25713
G1 X137.307 Y128.492 E1.27584
G1 X137.098 Y129.406 E1.29455
G1 X136.811 Y130.299 E1.31327
G1 X136.449 Y131.165 E1.332
G1 X136.015 Y131.996 E1.35071
G1 X135.511 Y132.787 E1.36943
G1 X134.942 Y133.532 E1.38813
G1 X134.311 Y134.227 E1.40687
G1 X133.624 Y134.865 E1.42558
G1 X132.885 Y135.442 E1.44429
G1 X132.099 Y135.954 E1.46301
G1 X131.273 Y136.397 E1.48171
G1 X130.411 Y136.769 E1.50045
G1 X129.522 Y137.065 E1.51915
G1 X128.61 Y137.285 E1.53787
G1 X127.683 Y137.426 E1.55658
G1 X126.799 Y137.487 E1.57426
G1 X126.17 Y137.5 E1.58682
G1 X109.065 Y137.499 E1.92817
G1 X108.367 Y137.49 E1.9421
G1 X107.431 Y137.438 E1.9608
G1 X106.502 Y137.306 E1.97953
G1 X105.588 Y137.096 E1.99825
G1 X104.695 Y136.809 E2.01696
G1 X103.83 Y136.446 E2.03568
G1 X102.999 Y136.012 E2.05439
G1 X102.208 Y135.508 E2.07311
G1 X101.463 Y134.938 E2.09183
G1 X100.769 Y134.307 E2.11055
G1 X100.132 Y133.62 E2.12924
G1 X99.555 Y132.88 E2.14797
G1 X99.043 Y132.094 E2.16669
G1 X98.6 Y131.267 E2.18541
G1 X98.229 Y130.406 E2.20412
G1 X97.933 Y129.516 E2.22284
G1 X97.714 Y128.604 E2.24156
G1 X97.573 Y127.677 E2.26027
G1 X97.513 Y126.788 E2.27805
G1 X97.5 Y126.158 E2.29063
G1 X97.5 Y119.704 E2.41942
G1 X97.51 Y116.81 E2.47718
G1 X97.5 Y115.9 E2.49534
G1 X97.501 Y109.025 E2.63253
G1 X97.51 Y108.36 E2.64581
G1 X97.563 Y107.424 E2.66452
G1 X97.695 Y106.495 E2.68324
G1 X97.906 Y105.581 E2.70196
G1 X98.194 Y104.689 E2.72067
G1 X98.557 Y103.824 E2.73939
G1 X98.992 Y102.993 E2.7581
G1 X99.496 Y102.203 E2.77681
G1 X100.066 Y101.458 E2.79552
G1 X100.698 Y100.764 E2.81426
G0 F6000 X101.089 Y100.939
G1 F1200 X101.774 Y100.323 E2.83264
G1 X102.51 Y99.77 E2.85101
G1 X103.291 Y99.282 E2.86939
G1 X104.111 Y98.864 E2.88776
G1 X104.965 Y98.519 E2.90614
G1 X105.845 Y98.249 E2.92451
G1 X106.745 Y98.057 E2.94287
G1 X107.659 Y97.943 E2.96125
G1 X108.212 Y97.913 E2.97231
G1 X108.83 Y97.9 E2.98464
G1 X125.793 Y97.9 E3.32316
G1 X126.643 Y97.911 E3.34012
G1 X127.562 Y97.964 E3.35849
G1 X128.473 Y98.097 E3.37686
G1 X129.369 Y98.308 E3.39523
G1 X130.243 Y98.596 E3.4136
G1 X131.09 Y98.959 E3.43199
G1 X131.901 Y99.394 E3.45035
G1 X132.671 Y99.898 E3.46872
G1 X133.395 Y100.467 E3.48709
G1 X134.067 Y101.097 E3.50548
G1 X134.682 Y101.782 E3.52385
G1 X135.235 Y102.518 E3.54222
G1 X135.722 Y103.299 E3.56059
G1 X136.139 Y104.12 E3.57896
G1 X136.484 Y104.974 E3.59734
G1 X136.753 Y105.854 E3.61571
G1 X136.945 Y106.755 E3.63409
G1 X137.058 Y107.668 E3.65245
G1 X137.087 Y108.212 E3.66332
G1 X137.1 Y108.83 E3.67566
G1 X137.1 Y115.794 E3.81463
G1 X137.09 Y118.679 E3.8722
G1 X137.1 Y119.6 E3.89058
G1 X137.099 Y125.895 E4.01621
G1 X137.09 Y126.622 E4.03072
G1 X137.039 Y127.541 E4.04909
G1 X136.908 Y128.453 E4.06747
G1 X136.698 Y129.349 E4.08584
G1 X136.412 Y130.224 E4.10421
G1 X136.051 Y131.071 E4.12258
G1 X135.617 Y131.883 E4.14096
G1 X135.115 Y132.655 E4.15933
G1 X134.547 Y133.38 E4.17771
G1 X133.919 Y134.053 E4.19608
G1 X133.235 Y134.669 E4.21445
G1 X132.5 Y135.223 E4.23282
G1 X131.72 Y135.712 E4.25119
G1 X130.9 Y136.131 E4.26957
G1 X130.047 Y136.477 E4.28794
G1 X129.167 Y136.748 E4.30631
G1 X128.267 Y136.941 E4.32468
G1 X127.353 Y137.056 E4.34306
G1 X126.788 Y137.087 E4.35436
G1 X126.17 Y137.1 E4.36669
G1 X109.07 Y137.099 E4.70794
G1 X108.372 Y137.09 E4.72187
G1 X107.453 Y137.038 E4.74024
G1 X106.542 Y136.907 E4.75861
G1 X105.646 Y136.697 E4.77697
G1 X104.771 Y136.41 E4.79535
G1 X103.924 Y136.048 E4.81373
G1 X103.112 Y135.614 E4.83211
G1 X102.341 Y135.112 E4.85047
G1 X101.616 Y134.544 E4.86884
G1 X100.943 Y133.915 E4.88723
G1 X100.328 Y133.231 E4.90558
G1 X99.774 Y132.496 E4.92395
G1 X99.286 Y131.715 E4.94233
G1 X98.867 Y130.895 E4.96071
G1 X98.521 Y130.042 E4.97908
G1 X98.251 Y129.162 E4.99745
G1 X98.058 Y128.261 E5.01583
G1 X97.944 Y127.348 E5.03419
G1 X97.913 Y126.777 E5.04561
G1 X97.9 Y126.158 E5.05796
G1 X97.9 Y119.706 E5.18672
G1 X97.91 Y116.81 E5.24451
G1 X97.9 Y115.9 E5.26267
G1 X97.901 Y109.031 E5.39975
G1 X97.91 Y108.366 E5.41302
G1 X97.962 Y107.446 E5.43141
G1 X98.094 Y106.535 E5.44978
G1 X98.305 Y105.639 E5.46815
G1 X98.592 Y104.764 E5.48653
G1 X98.955 Y103.918 E5.5049
G1 X99.389 Y103.106 E5.52327
G1 X99.892 Y102.335 E5.54164
G1 X100.461 Y101.611 E5.56002
G1 X101.089 Y100.939 E5.57838
G0 F6000 X101.481 Y101.117
G1 F1200 X102.162 Y100.524 E5.5964
G1 X102.894 Y99.994 E5.61443
G1 X103.669 Y99.531 E5.63245
G1 X104.482 Y99.138 E5.65047
G1 X105.327 Y98.818 E5.6685
G1 X106.196 Y98.575 E5.68651
G1 X107.084 Y98.409 E5.70453
G1 X108.223 Y98.313 E5.72734
G1 X108.83 Y98.3 E5.73946
G1 X125.793 Y98.3 E6.07798
G1 X126.637 Y98.311 E6.09482
G1 X127.539 Y98.364 E6.11285
G1 X128.432 Y98.496 E6.13087
G1 X129.31 Y98.707 E6.14889
G1 X130.166 Y98.995 E6.16691
G1 X130.993 Y99.357 E6.18493
G1 X131.785 Y99.792 E6.20296
G1 X132.536 Y100.294 E6.22098
G1 X133.239 Y100.861 E6.23901
G1 X133.889 Y101.488 E6.25703
G1 X134.481 Y102.17 E6.27505
G1 X135.011 Y102.901 E6.29307
G1 X135.473 Y103.677 E6.31109
G1 X135.866 Y104.49 E6.32911
G1 X136.184 Y105.335 E6.34713
G1 X136.427 Y106.205 E6.36516
G1 X136.592 Y107.093 E6.38318
G1 X136.687 Y108.223 E6.40581
G1 X136.7 Y108.83 E6.41793
G1 X136.7 Y115.793 E6.55688
G1 X136.69 Y118.682 E6.61454
G1 X136.7 Y119.6 E6.63286
G1 X136.699 Y125.89 E6.75838
G1 X136.69 Y126.617 E6.77289
G1 X136.639 Y127.519 E6.79092
G1 X136.508 Y128.413 E6.80895
G1 X136.299 Y129.291 E6.82696
G1 X136.013 Y130.148 E6.84499
G1 X135.652 Y130.976 E6.86302
G1 X135.22 Y131.768 E6.88102
G1 X134.719 Y132.52 E6.89905
G1 X134.153 Y133.224 E6.91708
G1 X133.528 Y133.875 E6.93509
G1 X132.847 Y134.469 E6.95312
G1 X132.116 Y135 E6.97115
G1 X131.342 Y135.464 E6.98916
G1 X130.529 Y135.858 E7.00719
G1 X129.685 Y136.178 E7.0252
G1 X128.815 Y136.423 E7.04324
G1 X127.928 Y136.589 E7.06125
G1 X126.777 Y136.687 E7.0843
G1 X126.17 Y136.7 E7.09642
G1 X109.075 Y136.699 E7.43757
G1 X108.377 Y136.69 E7.4515
G1 X107.476 Y136.639 E7.46951
G1 X106.582 Y136.507 E7.48754
G1 X105.704 Y136.298 E7.50555
G1 X104.847 Y136.011 E7.52359
G1 X104.02 Y135.65 E7.5416
G1 X103.227 Y135.217 E7.55963
G1 X102.476 Y134.716 E7.57764
G1 X101.772 Y134.15 E7.59567
G1 X101.121 Y133.524 E7.61369
G1 X100.528 Y132.843 E7.63171
G1 X99.998 Y132.112 E7.64973
G1 X99.534 Y131.337 E7.66776
G1 X99.14 Y130.524 E7.68579
G1 X98.82 Y129.68 E7.7038
G1 X98.576 Y128.81 E7.72183
G1 X98.41 Y127.922 E7.73986
G1 X98.313 Y126.767 E7.76299
G1 X98.3 Y126.158 E7.77515
G1 X98.3 Y119.707 E7.90388
G1 X98.31 Y116.81 E7.96169
G1 X98.3 Y115.9 E7.97986
G1 X98.301 Y109.036 E8.11683
G1 X98.31 Y108.371 E8.13011
G1 X98.362 Y107.469 E8.14814
G1 X98.494 Y106.576 E8.16615
G1 X98.704 Y105.698 E8.18417
G1 X98.991 Y104.841 E8.2022
G1 X99.353 Y104.014 E8.22022
G1 X99.786 Y103.222 E8.23823
G1 X100.288 Y102.471 E8.25626
G1 X100.855 Y101.767 E8.2743
G1 X101.481 Y101.117 E8.29231
G1 F2700 E3.29231
G1 F300 Z0.32
;MESH:Smashing Fyyran (27).stl
G0 F6000 X112.783 Y121.861 Z0.32
;TYPE:WALL-INNER
G1 F300 Z0.12
G1 F2700 E8.29231
G1 F1200 X112.541 Y121.757 E8.29756
G1 X112.304 Y121.56 E8.30371
G1 X112.122 Y121.263 E8.31066
G1 X112.053 Y121.021 E8.31569
G1 X112.053 Y114.365 E8.44851
G1 X112.131 Y113.977 E8.45641
G1 X112.332 Y113.671 E8.46372
G1 X112.589 Y113.479 E8.47012
G1 X112.81 Y113.394 E8.47484
G1 X113.053 Y113.365 E8.47973
G1 X121.947 Y113.365 E8.65722
G1 X122.19 Y113.394 E8.6621
G1 X122.411 Y113.479 E8.66683
G1 X122.668 Y113.67 E8.67322
G1 X122.87 Y113.976 E8.68053
G1 X122.948 Y114.365 E8.68845
G1 X122.948 Y121.016 E8.82118
G1 X122.879 Y121.264 E8.82632
G1 X122.697 Y121.561 E8.83327
G1 X122.459 Y121.757 E8.83942
G1 X122.217 Y121.861 E8.84468
G1 X122.12 Y121.883 E8.84666
G1 X121.947 Y121.897 E8.85013
G1 X113.053 Y121.897 E9.02762
G1 X112.783 Y121.861 E9.03305
G0 F6000 X112.603 Y121.295
G1 F1200 X112.453 Y120.973 E9.04014
G1 X112.453 Y114.365 E9.17201
G1 X112.499 Y114.132 E9.17675
G1 X112.62 Y113.948 E9.18114
G1 X112.774 Y113.833 E9.18498
G1 X112.951 Y113.765 E9.18876
G1 X122.049 Y113.765 E9.37032
G1 X122.226 Y113.833 E9.37411
G1 X122.38 Y113.948 E9.37794
G1 X122.501 Y114.132 E9.38234
G1 X122.548 Y114.365 E9.38708
G1 X122.548 Y120.968 E9.51885
G1 X122.507 Y121.117 E9.52194
G1 X122.397 Y121.295 E9.52611
G1 X122.254 Y121.413 E9.52981
G1 X122.051 Y121.489 E9.53414
G1 X121.947 Y121.497 E9.53622
G1 X113.053 Y121.497 E9.71371
G1 X112.746 Y121.413 E9.72006
G1 X112.603 Y121.295 E9.72376
G0 F6000 X112.903 Y121.03
;TYPE:WALL-OUTER
G1 F1200 X112.855 Y120.932 E9.72594
G1 X112.853 Y114.365 E9.85699
G1 X112.908 Y114.226 E9.85997
G1 X113.018 Y114.167 E9.86246
G1 X121.996 Y114.17 E10.04163
G1 X122.092 Y114.226 E10.04385
G1 X122.148 Y114.365 E10.04684
G1 X122.145 Y120.932 E10.17789
G1 X122.097 Y121.03 E10.18007
G1 X121.982 Y121.095 E10.1827
G1 X113.015 Y121.097 E10.36165
G1 X112.903 Y121.03 E10.36425
G1 F2700 E5.36425
G1 F300 Z0.32
G0 F6000 X109.5 Y125.5 Z0.32
;TYPE:WALL-INNER
G1 F300 Z0.12
G1 F2700 E10.36425
G1 F1200 X125.5 Y125.5 E10.68355
G1 X125.5 Y119.397 E10.80534
G1 X125.203 Y118.823 E10.81824
G1 X125.109 Y118.541 E10.82417
G1 X124.984 Y117.751 E10.84013
G1 X125.106 Y116.975 E10.85581
G1 X125.203 Y116.677 E10.86206
G1 X125.5 Y116.103 E10.87496
G1 X125.5 Y109.5 E11.00673
G1 X109.5 Y109.5 E11.32603
G1 X109.501 Y116.103 E11.4578
G1 X109.796 Y116.678 E11.47069
G1 X109.893 Y116.976 E11.47695
G1 X110.014 Y117.749 E11.49256
G1 X109.891 Y118.541 E11.50856
G1 X109.796 Y118.822 E11.51448
G1 X109.501 Y119.397 E11.52737
G1 X109.5 Y125.5 E11.64917
G0 F6000 X109.1 Y125.9
G1 F1200 X125.9 Y125.9 E11.98443
G1 X125.9 Y119.275 E12.11664
G1 X125.845 Y119.2 E12.11849
G1 X125.516 Y118.555 E12.13294
G1 X125.389 Y117.752 E12.14917
G1 X125.517 Y116.944 E12.16549
G1 X125.845 Y116.3 E12.17991
G1 X125.9 Y116.225 E12.18177
G1 X125.9 Y109.1 E12.32396
G1 X109.1 Y109.1 E12.65922
G1 X109.101 Y116.225 E12.80141
G1 X109.155 Y116.3 E12.80325
G1 X109.483 Y116.944 E12.81767
G1 X109.61 Y117.751 E12.83398
G1 X109.497 Y118.472 E12.84854
G1 X109.44 Y118.641 E12.8521
G1 X109.155 Y119.2 E12.86462
G1 X109.101 Y119.275 E12.86647
G1 X109.1 Y125.9 E12.99867
G0 F6000 X108.7 Y126.3
;TYPE:WALL-OUTER
G1 F1200 X126.3 Y126.3 E13.3499
G1 X126.3 Y119.131 E13.49297
G1 X126.201 Y119.018 E13.49596
G1 X125.902 Y118.432 E13.50909
G1 X125.794 Y117.75 E13.52287
G1 X125.902 Y117.068 E13.53665
G1 X126.201 Y116.482 E13.54978
G1 X126.3 Y116.369 E13.55278
G1 X126.3 Y108.7 E13.70582
G1 X108.7 Y108.7 E14.05705
G1 X108.701 Y116.369 E14.21009
G1 X108.799 Y116.482 E14.21308
G1 X109.098 Y117.069 E14.22622
G1 X109.203 Y117.75 E14.23997
G1 X109.103 Y118.403 E14.25316
G1 X109.084 Y118.459 E14.25434
G1 X108.799 Y119.018 E14.26686
G1 X108.701 Y119.131 E14.26984
G1 X108.7 Y126.3 E14.41291
G1 F2700 E9.41291
G1 F300 Z0.32
G0 F6000 X109.861 Y125.139 Z0.32
;TYPE:SKIN
G1 F300 Z0.12
G1 F2700 E14.41291
G1 F1200 X125.14 Y125.14 E14.71782
G1 X125.14 Y119.71 E14.82618
G1 X125.14 Y119.491 E14.83055
G1 X124.882 Y118.985 E14.84188
G1 X124.753 Y118.598 E14.85003
G1 X124.619 Y117.747 E14.86722
G1 X124.758 Y116.885 E14.88464
G1 X124.87 Y116.543 E14.89182
G1 X125.14 Y116.009 E14.90376
G1 X125.14 Y109.86 E15.02647
G1 X109.861 Y109.86 E15.33138
G1 X109.861 Y116.01 E15.45411
G1 X110.117 Y116.516 E15.46543
G1 X110.249 Y116.919 E15.47389
G1 X110.377 Y117.749 E15.49065
G1 X110.247 Y118.601 E15.50785
G1 X110.128 Y118.958 E15.51536
G1 X109.861 Y119.49 E15.52724
G1 X109.861 Y125.139 E15.63997
G1 F2700 E10.63997
G1 F300 Z0.32
G0 F6000 X112.685 Y122.209 Z0.32
G1 F300 Z0.12
G1 F2700 E15.63997
G1 F1200 X112.358 Y122.065 E15.6471
G1 X112.034 Y121.8 E15.65546
G1 X111.786 Y121.399 E15.66486
G1 X111.695 Y121.073 E15.67162
G1 X111.696 Y114.33 E15.80618
G1 X111.795 Y113.836 E15.81624
G1 X112.067 Y113.42 E15.82616
G1 X112.397 Y113.174 E15.83437
G1 X112.423 Y113.157 E15.83499
G1 X112.731 Y113.041 E15.84156
G1 X113.034 Y113.006 E15.84764
G1 X121.965 Y113.006 E16.02587
G1 X122.303 Y113.052 E16.03268
G1 X122.58 Y113.157 E16.03859
G1 X122.932 Y113.419 E16.04735
G1 X123.204 Y113.833 E16.05723
G1 X123.305 Y114.33 E16.06735
G1 X123.306 Y121.069 E16.20184
G1 X123.215 Y121.4 E16.20869
G1 X122.967 Y121.799 E16.21806
G1 X122.642 Y122.065 E16.22645
G1 X122.289 Y122.213 E16.23408
G1 X121.969 Y122.256 E16.24053
G1 X113.032 Y122.256 E16.41887
G1 X112.685 Y122.209 E16.42586
G1 F2700 E11.42586
G1 F300 Z0.32
G0 F6000 X110.23 Y124.938 Z0.32
G1 F300 Z0.12
G1 F2700 E16.42586
G1 F1200 X110.061 Y124.768 E16.43065
G0 F6000 X110.061 Y124.203
G1 F1200 X110.796 Y124.938 E16.45139
G0 F6000 X111.362 Y124.938
G1 F1200 X110.061 Y123.637 E16.48811
G0 F6000 X110.061 Y123.071
G1 F1200 X111.927 Y124.938 E16.54078
G0 F6000 X112.493 Y124.938
G1 F1200 X110.061 Y122.506 E16.60942
G0 F6000 X110.061 Y121.94
G1 F1200 X113.059 Y124.938 E16.69403
G0 F6000 X113.624 Y124.938
G1 F1200 X110.061 Y121.374 E16.7946
G0 F6000 X110.061 Y120.809
G1 F1200 X114.19 Y124.938 E16.91113
G0 F6000 X114.756 Y124.938
G1 F1200 X110.061 Y120.243 E17.04363
G0 F6000 X110.061 Y119.677
G1 F1200 X111.501 Y121.118 E17.08429
G0 F6000 X111.498 Y120.548
G1 F1200 X110.204 Y119.254 E17.12081
G0 F6000 X110.369 Y118.854
G1 F1200 X111.497 Y119.982 E17.15264
G0 F6000 X111.497 Y119.416
G1 F1200 X110.479 Y118.398 E17.18137
G0 F6000 X110.552 Y117.906
G1 F1200 X111.496 Y118.85 E17.20801
G0 F6000 X111.496 Y118.284
G1 F1200 X110.504 Y117.292 E17.23601
G0 F6000 X110.343 Y116.565
G1 F1200 X111.495 Y117.718 E17.26853
G0 F6000 X111.495 Y117.152
G1 F1200 X110.06 Y115.717 E17.30903
G0 F6000 X110.06 Y115.151
G1 F1200 X111.495 Y116.586 E17.34953
G0 F6000 X111.494 Y116.019
G1 F1200 X110.06 Y114.585 E17.39
G0 F6000 X110.06 Y114.02
G1 F1200 X111.494 Y115.454 E17.43047
G0 F6000 X111.493 Y114.887
G1 F1200 X110.06 Y113.454 E17.47092
G0 F6000 X110.06 Y112.888
G1 F1200 X111.494 Y114.322 E17.51139
G0 F6000 X111.588 Y113.851
G1 F1200 X110.06 Y112.323 E17.55451
G0 F6000 X110.06 Y111.757
G1 F1200 X111.787 Y113.484 E17.60325
G0 F6000 X112.051 Y113.183
G1 F1200 X110.06 Y111.191 E17.65945
G0 F6000 X110.06 Y110.626
G1 F1200 X112.389 Y112.955 E17.72518
G0 F6000 X112.828 Y112.828
G1 F1200 X110.06 Y110.06 E17.8033
G0 F6000 X110.626 Y110.06
G1 F1200 X113.372 Y112.806 E17.8808
G0 F6000 X113.938 Y112.806
G1 F1200 X111.191 Y110.06 E17.95831
G0 F6000 X111.757 Y110.06
